X: 22589
T: Lady Of The Lake
R: barndance
M: 4/4
K: Gmajor
|:B,>A,|G,>B,D>G B>AG>B|d>BG>A B>AG>B|c>dc>B A>GF>G|A>GF>E (3DED (3CB,A,|
G,>B,D>G B>AG>B|d>BG>A B2 (3GAB|c2 c>B A>GF>E|D>GG>F G2:|
|:B>c|d>cB>d g2 g>B|c>B A2 a2- a>g|f2- f>g f2 e>d|e>dd>^c d2 B>=c|
d>cB>d g>dg>d|c>B A2 a2- a>e|f>ed>B c>AF>D|(3GAG F>A G2:|

